src/symbolic/apps/preferences-desktop-screensaver-symbolic.svg

<svg xmlns="http://www.w3.org/2000/svg" width="16" height="16"><path d="M10.48 4.69c.32.39.52.89.52 1.43 0 1.25-1.01 2.26-2.26 2.26-.54 0-1.04-.2-1.43-.52a2.637 2.637 0 0 0 2.56 2.02c1.45 0 2.63-1.18 2.63-2.63 0-1.24-.86-2.29-2.02-2.56zM5.5 7.5L5 6l-1.5-.5L5 5l.5-1.5L6 5l1.5.5L6 6z" fill="#444"/><path d="M2 0C0 0 0 2 0 2v9s0 2 2 2h12s2 0 2-2V2s0-2-2-2zm0 2h12v9H2zm1 13v1h10v-1c0-1-1-1-1-1H4s-1 0-1 1z" fill="#444"/><path d="M8 3.5a.5.5 0 0 1-.5.5.5.5 0 0 1-.5-.5.5.5 0 0 1 .5-.5.5.5 0 0 1 .5.5zM13 3.5a.5.5 0 0 1-.5.5.5.5 0 0 1-.5-.5.5.5 0 0 1 .5-.5.5.5 0 0 1 .5.5zM9 5.5a.5.5 0 0 1-.5.5.5.5 0 0 1-.5-.5.5.5 0 0 1 .5-.5.5.5 0 0 1 .5.5zM5 8.5a.5.5 0 0 1-.5.5.5.5 0 0 1-.5-.5.5.5 0 0 1 .5-.5.5.5 0 0 1 .5.5z" fill="#444"/></svg>

<svg xmlns="http://www.w3.org/2000/svg" width="16" height="16" version="1.1">
 <path style="fill:#444444" d="M 10.48,4.69 C 10.8,5.08 11,5.58 11,6.12 11,7.37 9.99,8.38 8.74,8.38 8.2,8.38 7.7,8.18 7.31,7.86 7.59,9.02 8.63,9.88 9.87,9.88 11.32,9.88 12.5,8.7 12.5,7.25 12.5,6.01 11.64,4.96 10.48,4.69 Z"/>
 <path style="fill:#444444" d="M 5.5,7.5 5,6 3.5,5.5 5,5 5.5,3.5 6,5 7.5,5.5 6,6 Z"/>
 <path style="fill:#444444" d="M 2,0 C 0,0 0,2 0,2 V 11 C 0,11 0,13 2,13 H 14 C 14,13 16,13 16,11 V 2 C 16,2 16,0 14,0 Z M 2,2 H 14 V 11 H 2 Z M 3,15 V 16 H 13 V 15 C 13,14 12,14 12,14 H 4 C 4,14 3,14 3,15 Z"/>
 <path style="fill:#444444" d="M 8,3.5 A 0.5,0.5 0 0 1 7.5,4 0.5,0.5 0 0 1 7,3.5 0.5,0.5 0 0 1 7.5,3 0.5,0.5 0 0 1 8,3.5 Z"/>
 <path style="fill:#444444" d="M 13,3.5 A 0.5,0.5 0 0 1 12.5,4 0.5,0.5 0 0 1 12,3.5 0.5,0.5 0 0 1 12.5,3 0.5,0.5 0 0 1 13,3.5 Z"/>
 <path style="fill:#444444" d="M 9,5.5 A 0.5,0.5 0 0 1 8.5,6 0.5,0.5 0 0 1 8,5.5 0.5,0.5 0 0 1 8.5,5 0.5,0.5 0 0 1 9,5.5 Z"/>
 <path style="fill:#444444" d="M 5,8.5 A 0.5,0.5 0 0 1 4.5,9 0.5,0.5 0 0 1 4,8.5 0.5,0.5 0 0 1 4.5,8 0.5,0.5 0 0 1 5,8.5 Z"/>
</svg>
